artwork/resources/intui/icons/shell/toolbar/instant-run@20x20.svg

<svg width="20" height="20" viewBox="0 0 20 20" fill="none" xmlns="http://www.w3.org/2000/svg">
<path fill-rule="evenodd" clip-rule="evenodd" d="M10.2333 1.5C10.0903 1.5 9.95944 1.58062 9.89515 1.7084L4.86463 11.7067C4.69733 12.0393 4.93905 12.4315 5.31129 12.4315H8.89176C9.16801 12.4315 9.39191 12.6555 9.39176 12.9317L9.38908 18.1218C9.38898 18.3307 9.55824 18.5 9.76707 18.5V18.5C9.90989 18.5 10.0405 18.4195 10.1047 18.2919L15.1352 8.29613C15.3026 7.9636 15.0609 7.57135 14.6886 7.57135H11.1214C10.8457 7.57135 10.622 7.34806 10.6214 7.07228L10.6118 1.87782C10.6114 1.66904 10.4421 1.5 10.2333 1.5V1.5Z" stroke="#6C707E" stroke-width="1.5"/>
</svg>

<svg width="20" height="20" viewBox="0 0 20 20" fill="none" xmlns="http://www.w3.org/2000/svg"><path clip-rule="evenodd" d="M10.233 1.5a.379.379 0 0 0-.338.208l-5.03 9.999a.5.5 0 0 0 .446.724h3.58a.5.5 0 0 1 .5.5l-.002 5.19c0 .21.17.379.378.379v0c.143 0 .274-.08.338-.208l5.03-9.996a.5.5 0 0 0-.446-.725H11.12a.5.5 0 0 1-.5-.499l-.01-5.194a.378.378 0 0 0-.378-.378v0z" stroke="#6C707E" stroke-width="1.5"/></svg>
